!!! OTL: Literature11
!!! Chapter: 5
!!! Section: I
!!! Page: 347
!!! Mode: 
!!! Encoder: DJB
**kern
*staff1
*I"Piano
=1-
*clefF4
*k[]
*C:
*M3/4
4r
4r
4C/
=2
4E\
4G\
4E\
=3
4D\
4C/
4AA/
=4
2C/
4AA/
=5
2.GG/
=6
4E\
4G\
4G\
=7
2A\
4G\
=8
4A\
4c\
4c\
=9
2d\
4c\
=10
4E\
4G\
4E\
=11
4D\
4C/
4AA/
=12
4D\
4C/
4AA/
=13
!!linebreak:original
2GG/
4GG/
=14
2AA/
4C/
=15
4D\
4E\
4D\
=16
2C/
4AA/
=17
2C/
4r
==
*-
